; generated by Slic3r 1.2.9 on 2015-11-05 at 16:23:38

; external perimeters extrusion width = 0.50mm
; perimeters extrusion width = 0.72mm
; infill extrusion width = 0.72mm
; solid infill extrusion width = 0.72mm
; top infill extrusion width = 0.72mm

M107
M104 S200 ; set temperature
G28 ; home all axes
G1 Z5 F5000 ; lift nozzle

M109 S200 ; wait for temperature to be reached
G21 ; set units to millimeters
G90 ; use absolute coordinates
M82 ; use absolute distances for extrusion
G92 E0
G1 Z0.350 F7800.000
G1 E-2.00000 F2400.00000
G92 E0
G1 X73.915 Y74.753 F7800.000
G1 E2.00000 F2400.00000
G1 X75.668 Y73.274 E2.07096 F1800.000
G1 X77.820 Y72.481 E2.14192
G1 X79.000 Y72.375 E2.17858
G1 X121.000 Y72.375 E3.47811
G1 X123.259 Y72.772 E3.54907
G1 X125.247 Y73.915 E3.62004 F1800.000
G1 X126.726 Y75.668 E3.69100
G1 X127.519 Y77.820 E3.76196
G1 X127.625 Y79.000 E3.79861
G1 X127.625 Y121.000 E5.09815
G1 X127.228 Y123.259 E5.16911
G1 X126.085 Y125.247 E5.24007
G1 X124.332 Y126.726 E5.31103
G1 X122.180 Y127.519 E5.38200
G1 X121.000 Y127.625 E5.41865
G1 X79.000 Y127.625 E6.71818
G1 X76.741 Y127.228 E6.78914
G1 X74.753 Y126.085 E6.86011
G1 X73.274 Y124.332 E6.93107
G1 X72.481 Y122.180 E7.00203
G1 X72.375 Y121.000 E7.03868
G1 X72.375 Y79.000 E8.33822
G1 X72.772 Y76.741 E8.40918
G1 X73.878 Y74.818 E8.47782
G1 E6.47782 F2400.00000
G92 E0
G1 X104.650 Y104.650 F7800.000
G1 E2.00000 F2400.00000
G1 X95.350 Y104.650 E2.28776 F1800.000
G1 X95.350 Y95.350 E2.57551
G1 X104.650 Y95.350 E2.86327
G1 X104.650 Y104.575 E3.14870
G1 X104.119 Y104.306 F7800.000
G1 X104.119 Y95.694 E3.41894 F1800.000
G1 X103.485 Y95.694 E3.43882
G1 X103.485 Y104.306 E3.70906
G1 X102.852 Y104.306 E3.72894
G1 X102.852 Y95.694 E3.99918
G1 X102.218 Y95.694 E4.01906
G1 X102.218 Y104.306 E4.28930
G1 X101.584 Y104.306 E4.30918
G1 X101.584 Y95.694 E4.57942
G1 X100.951 Y95.694 E4.59930
G1 X100.951 Y104.306 E4.86954
G1 X100.317 Y104.306 E4.88942
G1 X100.317 Y95.694 E5.15966
G1 X99.683 Y95.694 E5.17954
G1 X99.683 Y104.306 E5.44978
G1 X99.049 Y104.306 E5.46966
G1 X99.049 Y95.694 E5.73990
G1 X98.416 Y95.694 E5.75978
G1 X98.416 Y104.306 E6.03002
G1 X97.782 Y104.306 E6.04990
G1 X97.782 Y95.694 E6.32014
G1 X97.148 Y95.694 E6.34002
G1 X97.148 Y104.306 E6.61026
G1 X96.515 Y104.306 E6.63014
G1 X96.515 Y95.694 E6.90038
G1 X95.881 Y95.694 E6.92026
G1 X95.881 Y104.306 E7.19050
G1 E5.19050 F2400.00000
G92 E0
G1 X88.650 Y104.650 F7800.000
G1 E2.00000 F2400.00000
G1 X79.350 Y104.650 E2.28776 F1800.000
G1 X79.350 Y95.350 E2.57551
G1 X88.650 Y95.350 E2.86327
G1 X88.650 Y104.575 E3.14870
G1 X88.119 Y104.306 F7800.000
G1 X88.119 Y95.694 E3.41894 F1800.000
G1 X87.485 Y95.694 E3.43882
G1 X87.485 Y104.306 E3.70906
G1 X86.852 Y104.306 E3.72894
G1 X86.852 Y95.694 E3.99918
G1 X86.218 Y95.694 E4.01906
G1 X86.218 Y104.306 E4.28930
G1 X85.584 Y104.306 E4.30918
G1 X85.584 Y95.694 E4.57942
G1 X84.951 Y95.694 E4.59930
G1 X84.951 Y104.306 E4.86954
G1 X84.317 Y104.306 E4.88942
G1 X84.317 Y95.694 E5.15966
G1 X83.683 Y95.694 E5.17954
G1 X83.683 Y104.306 E5.44978
G1 X83.049 Y104.306 E5.46966
G1 X83.049 Y95.694 E5.73990
G1 X82.416 Y95.694 E5.75978
G1 X82.416 Y104.306 E6.03002
G1 X81.782 Y104.306 E6.04990
G1 X81.782 Y95.694 E6.32014
G1 X81.148 Y95.694 E6.34002
G1 X81.148 Y104.306 E6.61026
G1 X80.515 Y104.306 E6.63014
G1 X80.515 Y95.694 E6.90038
G1 X79.881 Y95.694 E6.92026
G1 X79.881 Y104.306 E7.19050
G1 E5.19050 F2400.00000
G92 E0
G1 X88.650 Y88.650 F7800.000
G1 E2.00000 F2400.00000
G1 X79.350 Y88.650 E2.28776 F1800.000
G1 X79.350 Y79.350 E2.57551
G1 X88.650 Y79.350 E2.86327
G1 X88.650 Y88.575 E3.14870
G1 X88.119 Y88.306 F7800.000
G1 X88.119 Y79.694 E3.41894 F1800.000
G1 X87.485 Y79.694 E3.43882
G1 X87.485 Y88.306 E3.70906
G1 X86.852 Y88.306 E3.72894
G1 X86.852 Y79.694 E3.99918
G1 X86.218 Y79.694 E4.01906
G1 X86.218 Y88.306 E4.28930
G1 X85.584 Y88.306 E4.30918
G1 X85.584 Y79.694 E4.57942
G1 X84.951 Y79.694 E4.59930
G1 X84.951 Y88.306 E4.86954
G1 X84.317 Y88.306 E4.88942
G1 X84.317 Y79.694 E5.15966
G1 X83.683 Y79.694 E5.17954
G1 X83.683 Y88.306 E5.44978
G1 X83.049 Y88.306 E5.46966
G1 X83.049 Y79.694 E5.73990
G1 X82.416 Y79.694 E5.75978
G1 X82.416 Y88.306 E6.03002
G1 X81.782 Y88.306 E6.04990
G1 X81.782 Y79.694 E6.32014
G1 X81.148 Y79.694 E6.34002
G1 X81.148 Y88.306 E6.61026
G1 X80.515 Y88.306 E6.63014
G1 X80.515 Y79.694 E6.90038
G1 X79.881 Y79.694 E6.92026
G1 X79.881 Y88.306 E7.19050
G1 E5.19050 F2400.00000
G92 E0
G1 X104.650 Y88.650 F7800.000
G1 E2.00000 F2400.00000
G1 X95.350 Y88.650 E2.28776 F1800.000
G1 X95.350 Y79.350 E2.57551
G1 X104.650 Y79.350 E2.86327
G1 X104.650 Y88.575 E3.14870
G1 X104.119 Y88.306 F7800.000
G1 X104.119 Y79.694 E3.41894 F1800.000
G1 X103.485 Y79.694 E3.43882
G1 X103.485 Y88.306 E3.70906
G1 X102.852 Y88.306 E3.72894
G1 X102.852 Y79.694 E3.99918
G1 X102.218 Y79.694 E4.01906
G1 X102.218 Y88.306 E4.28930
G1 X101.584 Y88.306 E4.30918
G1 X101.584 Y79.694 E4.57942
G1 X100.951 Y79.694 E4.59930
G1 X100.951 Y88.306 E4.86954
G1 X100.317 Y88.306 E4.88942
G1 X100.317 Y79.694 E5.15966
G1 X99.683 Y79.694 E5.17954
G1 X99.683 Y88.306 E5.44978
G1 X99.049 Y88.306 E5.46966
G1 X99.049 Y79.694 E5.73990
G1 X98.416 Y79.694 E5.75978
G1 X98.416 Y88.306 E6.03002
G1 X97.782 Y88.306 E6.04990
G1 X97.782 Y79.694 E6.32014
G1 X97.148 Y79.694 E6.34002
G1 X97.148 Y88.306 E6.61026
G1 X96.515 Y88.306 E6.63014
G1 X96.515 Y79.694 E6.90038
G1 X95.881 Y79.694 E6.92026
G1 X95.881 Y88.306 E7.19050
G1 E5.19050 F2400.00000
G92 E0
G1 X120.650 Y88.650 F7800.000
G1 E2.00000 F2400.00000
G1 X111.350 Y88.650 E2.28776 F1800.000
G1 X111.350 Y79.350 E2.57551
G1 X120.650 Y79.350 E2.86327
G1 X120.650 Y88.575 E3.14870
G1 X120.119 Y88.306 F7800.000
G1 X120.119 Y79.694 E3.41894 F1800.000
G1 X119.485 Y79.694 E3.43882
G1 X119.485 Y88.306 E3.70906
G1 X118.852 Y88.306 E3.72894
G1 X118.852 Y79.694 E3.99918
G1 X118.218 Y79.694 E4.01906
G1 X118.218 Y88.306 E4.28930
G1 X117.584 Y88.306 E4.30918
G1 X117.584 Y79.694 E4.57942
G1 X116.951 Y79.694 E4.59930
G1 X116.951 Y88.306 E4.86954
G1 X116.317 Y88.306 E4.88942
G1 X116.317 Y79.694 E5.15966
G1 X115.683 Y79.694 E5.17954
G1 X115.683 Y88.306 E5.44978
G1 X115.049 Y88.306 E5.46966
G1 X115.049 Y79.694 E5.73990
G1 X114.416 Y79.694 E5.75978
G1 X114.416 Y88.306 E6.03002
G1 X113.782 Y88.306 E6.04990
G1 X113.782 Y79.694 E6.32014
G1 X113.148 Y79.694 E6.34002
G1 X113.148 Y88.306 E6.61026
G1 X112.515 Y88.306 E6.63014
G1 X112.515 Y79.694 E6.90038
G1 X111.881 Y79.694 E6.92026
G1 X111.881 Y88.306 E7.19050
G1 E5.19050 F2400.00000
G92 E0
G1 X120.650 Y104.650 F7800.000
G1 E2.00000 F2400.00000
G1 X111.350 Y104.650 E2.28776 F1800.000
G1 X111.350 Y95.350 E2.57551
G1 X120.650 Y95.350 E2.86327
G1 X120.650 Y104.575 E3.14870
G1 X120.119 Y104.306 F7800.000
G1 X120.119 Y95.694 E3.41894 F1800.000
G1 X119.485 Y95.694 E3.43882
G1 X119.485 Y104.306 E3.70906
G1 X118.852 Y104.306 E3.72894
G1 X118.852 Y95.694 E3.99918
G1 X118.218 Y95.694 E4.01906
G1 X118.218 Y104.306 E4.28930
G1 X117.584 Y104.306 E4.30918
G1 X117.584 Y95.694 E4.57942
G1 X116.951 Y95.694 E4.59930
G1 X116.951 Y104.306 E4.86954
G1 X116.317 Y104.306 E4.88942
G1 X116.317 Y95.694 E5.15966
G1 X115.683 Y95.694 E5.17954
G1 X115.683 Y104.306 E5.44978
G1 X115.049 Y104.306 E5.46966
G1 X115.049 Y95.694 E5.73990
G1 X114.416 Y95.694 E5.75978
G1 X114.416 Y104.306 E6.03002
G1 X113.782 Y104.306 E6.04990
G1 X113.782 Y95.694 E6.32014
G1 X113.148 Y95.694 E6.34002
G1 X113.148 Y104.306 E6.61026
G1 X112.515 Y104.306 E6.63014
G1 X112.515 Y95.694 E6.90038
G1 X111.881 Y95.694 E6.92026
G1 X111.881 Y104.306 E7.19050
G1 E5.19050 F2400.00000
G92 E0
G1 X120.650 Y120.650 F7800.000
G1 E2.00000 F2400.00000
G1 X111.350 Y120.650 E2.28776 F1800.000
G1 X111.350 Y111.350 E2.57551
G1 X120.650 Y111.350 E2.86327
G1 X120.650 Y120.575 E3.14870
G1 X120.119 Y120.306 F7800.000
G1 X120.119 Y111.694 E3.41894 F1800.000
G1 X119.485 Y111.694 E3.43882
G1 X119.485 Y120.306 E3.70906
G1 X118.852 Y120.306 E3.72894
G1 X118.852 Y111.694 E3.99918
G1 X118.218 Y111.694 E4.01906
G1 X118.218 Y120.306 E4.28930
G1 X117.584 Y120.306 E4.30918
G1 X117.584 Y111.694 E4.57942
G1 X116.951 Y111.694 E4.59930
G1 X116.951 Y120.306 E4.86954
G1 X116.317 Y120.306 E4.88942
G1 X116.317 Y111.694 E5.15966
G1 X115.683 Y111.694 E5.17954
G1 X115.683 Y120.306 E5.44978
G1 X115.049 Y120.306 E5.46966
G1 X115.049 Y111.694 E5.73990
G1 X114.416 Y111.694 E5.75978
G1 X114.416 Y120.306 E6.03002
G1 X113.782 Y120.306 E6.04990
G1 X113.782 Y111.694 E6.32014
G1 X113.148 Y111.694 E6.34002
G1 X113.148 Y120.306 E6.61026
G1 X112.515 Y120.306 E6.63014
G1 X112.515 Y111.694 E6.90038
G1 X111.881 Y111.694 E6.92026
G1 X111.881 Y120.306 E7.19050
G1 E5.19050 F2400.00000
G92 E0
G1 X104.650 Y120.650 F7800.000
G1 E2.00000 F2400.00000
G1 X95.350 Y120.650 E2.28776 F1800.000
G1 X95.350 Y111.350 E2.57551
G1 X104.650 Y111.350 E2.86327
G1 X104.650 Y120.575 E3.14870
G1 X104.119 Y120.306 F7800.000
G1 X104.119 Y111.694 E3.41894 F1800.000
G1 X103.485 Y111.694 E3.43882
G1 X103.485 Y120.306 E3.70906
G1 X102.852 Y120.306 E3.72894
G1 X102.852 Y111.694 E3.99918
G1 X102.218 Y111.694 E4.01906
G1 X102.218 Y120.306 E4.28930
G1 X101.584 Y120.306 E4.30918
G1 X101.584 Y111.694 E4.57942
G1 X100.951 Y111.694 E4.59930
G1 X100.951 Y120.306 E4.86954
G1 X100.317 Y120.306 E4.88942
G1 X100.317 Y111.694 E5.15966
G1 X99.683 Y111.694 E5.17954
G1 X99.683 Y120.306 E5.44978
G1 X99.049 Y120.306 E5.46966
G1 X99.049 Y111.694 E5.73990
G1 X98.416 Y111.694 E5.75978
G1 X98.416 Y120.306 E6.03002
G1 X97.782 Y120.306 E6.04990
G1 X97.782 Y111.694 E6.32014
G1 X97.148 Y111.694 E6.34002
G1 X97.148 Y120.306 E6.61026
G1 X96.515 Y120.306 E6.63014
G1 X96.515 Y111.694 E6.90038
G1 X95.881 Y111.694 E6.92026
G1 X95.881 Y120.306 E7.19050
G1 E5.19050 F2400.00000
G92 E0
G1 X88.650 Y120.650 F7800.000
G1 E2.00000 F2400.00000
G1 X79.350 Y120.650 E2.28776 F1800.000
G1 X79.350 Y111.350 E2.57551
G1 X88.650 Y111.350 E2.86327
G1 X88.650 Y120.575 E3.14870
G1 X88.119 Y120.306 F7800.000
G1 X88.119 Y111.694 E3.41894 F1800.000
G1 X87.485 Y111.694 E3.43882
G1 X87.485 Y120.306 E3.70906
G1 X86.852 Y120.306 E3.72894
G1 X86.852 Y111.694 E3.99918
G1 X86.218 Y111.694 E4.01906
G1 X86.218 Y120.306 E4.28930
G1 X85.584 Y120.306 E4.30918
G1 X85.584 Y111.694 E4.57942
G1 X84.951 Y111.694 E4.59930
G1 X84.951 Y120.306 E4.86954
G1 X84.317 Y120.306 E4.88942
G1 X84.317 Y111.694 E5.15966
G1 X83.683 Y111.694 E5.17954
G1 X83.683 Y120.306 E5.44978
G1 X83.049 Y120.306 E5.46966
G1 X83.049 Y111.694 E5.73990
G1 X82.416 Y111.694 E5.75978
G1 X82.416 Y120.306 E6.03002
G1 X81.782 Y120.306 E6.04990
G1 X81.782 Y111.694 E6.32014
G1 X81.148 Y111.694 E6.34002
G1 X81.148 Y120.306 E6.61026
G1 X80.515 Y120.306 E6.63014
G1 X80.515 Y111.694 E6.90038
G1 X79.881 Y111.694 E6.92026
G1 X79.881 Y120.306 E7.19050
G1 Z0.650 F7800.000
G1 E5.19050 F2400.00000
G92 E0
G1 X73.915 Y74.753 F7800.000
G1 E2.00000 F2400.00000
G1 X75.668 Y73.274 E2.06187 F3600.000
G1 X77.820 Y72.481 E2.12374
G1 X79.000 Y72.375 E2.15569
G1 X121.000 Y72.375 E3.28871
G1 X123.259 Y72.772 E3.35058
G1 X125.247 Y73.915 E3.41245 F3600.000
G1 X126.726 Y75.668 E3.47432
G1 X127.519 Y77.820 E3.53618
G1 X127.625 Y79.000 E3.56814
G1 X127.625 Y121.000 E4.70115
G1 X127.228 Y123.259 E4.76302
G1 X126.085 Y125.247 E4.82489
G1 X124.332 Y126.726 E4.88676
G1 X122.180 Y127.519 E4.94863
G1 X121.000 Y127.625 E4.98059
G1 X79.000 Y127.625 E6.11360
G1 X76.741 Y127.228 E6.17547
G1 X74.753 Y126.085 E6.23734
G1 X73.274 Y124.332 E6.29921
G1 X72.481 Y122.180 E6.36108
G1 X72.375 Y121.000 E6.39303
G1 X72.375 Y79.000 E7.52605
G1 X72.772 Y76.741 E7.58791
G1 X73.878 Y74.818 E7.64776
G1 E5.64776 F2400.00000
G92 E0
G1 X104.750 Y104.750 F7800.000
G1 E2.00000 F2400.00000
G1 X95.250 Y104.750 E2.17564 F900.000
G1 X95.250 Y95.250 E2.35128
G1 X104.750 Y95.250 E2.52692
G1 X104.750 Y104.675 E2.70117
G1 X95.543 Y103.455 F7800.000
G1 X104.437 Y103.455 E2.94820 F4800.000
G1 X104.437 Y96.910 E3.13001
G1 X95.543 Y96.910 E3.37704
G1 E1.37704 F2400.00000
G92 E0
G1 X88.750 Y104.750 F7800.000
G1 E2.00000 F2400.00000
G1 X79.250 Y104.750 E2.17564 F900.000
G1 X79.250 Y95.250 E2.35128
G1 X88.750 Y95.250 E2.52692
G1 X88.750 Y104.675 E2.70117
G1 X79.543 Y103.455 F7800.000
G1 X88.437 Y103.455 E2.94820 F4800.000
G1 X88.437 Y96.910 E3.13001
G1 X79.543 Y96.910 E3.37704
G1 E1.37704 F2400.00000
G92 E0
G1 X88.750 Y88.750 F7800.000
G1 E2.00000 F2400.00000
G1 X79.250 Y88.750 E2.17564 F900.000
G1 X79.250 Y79.250 E2.35128
G1 X88.750 Y79.250 E2.52692
G1 X88.750 Y88.675 E2.70117
G1 X79.543 Y87.455 F7800.000
G1 X88.437 Y87.455 E2.94820 F4800.000
G1 X88.437 Y80.910 E3.13001
G1 X79.543 Y80.910 E3.37704
G1 E1.37704 F2400.00000
G92 E0
G1 X104.750 Y88.750 F7800.000
G1 E2.00000 F2400.00000
G1 X95.250 Y88.750 E2.17564 F900.000
G1 X95.250 Y79.250 E2.35128
G1 X104.750 Y79.250 E2.52692
G1 X104.750 Y88.675 E2.70117
G1 X95.543 Y87.455 F7800.000
G1 X104.437 Y87.455 E2.94820 F4800.000
G1 X104.437 Y80.910 E3.13001
G1 X95.543 Y80.910 E3.37704
G1 E1.37704 F2400.00000
G92 E0
G1 X120.750 Y88.750 F7800.000
G1 E2.00000 F2400.00000
G1 X111.250 Y88.750 E2.17564 F900.000
G1 X111.250 Y79.250 E2.35128
G1 X120.750 Y79.250 E2.52692
G1 X120.750 Y88.675 E2.70117
G1 X111.543 Y87.455 F7800.000
G1 X120.437 Y87.455 E2.94820 F4800.000
G1 X120.437 Y80.910 E3.13001
G1 X111.543 Y80.910 E3.37704
G1 E1.37704 F2400.00000
G92 E0
G1 X120.750 Y104.750 F7800.000
G1 E2.00000 F2400.00000
G1 X111.250 Y104.750 E2.17564 F900.000
G1 X111.250 Y95.250 E2.35128
G1 X120.750 Y95.250 E2.52692
G1 X120.750 Y104.675 E2.70117
G1 X111.543 Y103.455 F7800.000
G1 X120.437 Y103.455 E2.94820 F4800.000
G1 X120.437 Y96.910 E3.13001
G1 X111.543 Y96.910 E3.37704
G1 E1.37704 F2400.00000
G92 E0
G1 X120.750 Y120.750 F7800.000
G1 E2.00000 F2400.00000
G1 X111.250 Y120.750 E2.17564 F900.000
G1 X111.250 Y111.250 E2.35128
G1 X120.750 Y111.250 E2.52692
G1 X120.750 Y120.675 E2.70117
G1 X111.543 Y119.455 F7800.000
G1 X120.437 Y119.455 E2.94820 F4800.000
G1 X120.437 Y112.910 E3.13001
G1 X111.543 Y112.910 E3.37704
G1 E1.37704 F2400.00000
G92 E0
G1 X104.750 Y120.750 F7800.000
G1 E2.00000 F2400.00000
G1 X95.250 Y120.750 E2.17564 F900.000
G1 X95.250 Y111.250 E2.35128
G1 X104.750 Y111.250 E2.52692
G1 X104.750 Y120.675 E2.70117
G1 X95.543 Y119.455 F7800.000
G1 X104.437 Y119.455 E2.94820 F4800.000
G1 X104.437 Y112.910 E3.13001
G1 X95.543 Y112.910 E3.37704
G1 E1.37704 F2400.00000
G92 E0
G1 X88.750 Y120.750 F7800.000
G1 E2.00000 F2400.00000
G1 X79.250 Y120.750 E2.17564 F900.000
G1 X79.250 Y111.250 E2.35128
G1 X88.750 Y111.250 E2.52692
G1 X88.750 Y120.675 E2.70117
G1 X79.543 Y119.455 F7800.000
G1 X88.437 Y119.455 E2.94820 F4800.000
G1 X88.437 Y112.910 E3.13001
G1 X79.543 Y112.910 E3.37704
G1 Z0.950 F7800.000
G1 E1.37704 F2400.00000
G92 E0
G1 X73.915 Y74.753 F7800.000
G1 E2.00000 F2400.00000
G1 X75.668 Y73.274 E2.06187 F3600.000
G1 X77.820 Y72.481 E2.12374
G1 X79.000 Y72.375 E2.15569
G1 X121.000 Y72.375 E3.28871
G1 X123.259 Y72.772 E3.35058
G1 X125.247 Y73.915 E3.41245 F3600.000
G1 X126.726 Y75.668 E3.47432
G1 X127.519 Y77.820 E3.53618
G1 X127.625 Y79.000 E3.56814
G1 X127.625 Y121.000 E4.70115
G1 X127.228 Y123.259 E4.76302
G1 X126.085 Y125.247 E4.82489
G1 X124.332 Y126.726 E4.88676
G1 X122.180 Y127.519 E4.94863
G1 X121.000 Y127.625 E4.98059
G1 X79.000 Y127.625 E6.11360
G1 X76.741 Y127.228 E6.17547
G1 X74.753 Y126.085 E6.23734
G1 X73.274 Y124.332 E6.29921
G1 X72.481 Y122.180 E6.36108
G1 X72.375 Y121.000 E6.39303
G1 X72.375 Y79.000 E7.52605
G1 X72.772 Y76.741 E7.58791
G1 X73.878 Y74.818 E7.64776
G1 E5.64776 F2400.00000
G92 E0
G1 X104.750 Y104.750 F7800.000
G1 E2.00000 F2400.00000
G1 X95.250 Y104.750 E2.17564 F900.000
G1 X95.250 Y95.250 E2.35128
G1 X104.750 Y95.250 E2.52692
G1 X104.750 Y104.675 E2.70117
G1 X103.455 Y104.457 F7800.000
G1 X103.455 Y95.563 E2.94820 F4800.000
G1 X96.910 Y95.563 E3.13001
G1 X96.910 Y104.457 E3.37704
G1 E1.37704 F2400.00000
G92 E0
G1 X88.750 Y104.750 F7800.000
G1 E2.00000 F2400.00000
G1 X79.250 Y104.750 E2.17564 F900.000
G1 X79.250 Y95.250 E2.35128
G1 X88.750 Y95.250 E2.52692
G1 X88.750 Y104.675 E2.70117
G1 X87.455 Y104.457 F7800.000
G1 X87.455 Y95.563 E2.94820 F4800.000
G1 X80.910 Y95.563 E3.13001
G1 X80.910 Y104.457 E3.37704
G1 E1.37704 F2400.00000
G92 E0
