; generated by Slic3r 1.2.9 on 2015-11-05 at 16:29:18

; external perimeters extrusion width = 0.50mm
; perimeters extrusion width = 0.64mm
; infill extrusion width = 0.64mm
; solid infill extrusion width = 0.64mm
; top infill extrusion width = 0.64mm

M107
M104 S200 ; set temperature
G28 ; home all axes
G1 Z5 F5000 ; lift nozzle

M109 S200 ; wait for temperature to be reached
G21 ; set units to millimeters
G90 ; use absolute coordinates
M82 ; use absolute distances for extrusion
G92 E0
G1 Z0.350 F7800.000
G1 E-2.00000 F2400.00000
G92 E0
G1 X71.665 Y70.665 F7800.000
G1 E2.00000 F2400.00000
G1 X75.665 Y66.665 E2.17503 F1800.000
G1 X77.543 Y65.349 E2.24599
G1 X80.350 Y64.725 E2.33495
G1 X88.350 Y64.725 E2.58248
G1 X90.609 Y65.122 E2.65344
G1 X93.035 Y66.665 E2.74240 F1800.000
G1 X128.335 Y101.965 E4.28705
G1 X129.651 Y103.843 E4.35801
G1 X130.275 Y106.650 E4.44697
G1 X130.275 Y118.150 E4.80279
G1 X129.878 Y120.409 E4.87375
G1 X128.335 Y122.835 E4.96271
G1 X119.835 Y131.335 E5.33465
G1 X117.957 Y132.651 E5.40561
G1 X116.335 Y133.168 E5.45827
G1 X105.335 Y135.168 E5.80421
G1 X104.150 Y135.275 E5.84103
G1 X96.150 Y135.275 E6.08856
G1 X94.965 Y135.168 E6.12537
G1 X83.965 Y133.168 E6.47131
G1 X80.892 Y131.725 E6.57636
G1 X72.092 Y124.341 E6.93180
G1 X70.616 Y122.585 E7.00276
G1 X69.828 Y120.431 E7.07373
G1 X69.725 Y119.266 E7.10992
G1 X69.725 Y75.350 E8.46873
G1 X70.122 Y73.091 E8.53970
G1 X71.625 Y70.729 E8.62633
G1 E6.62633 F2400.00000
G92 E0
G1 X89.544 Y95.143 F7800.000
G1 E2.00000 F2400.00000
G1 X88.880 Y95.881 E2.03074 F1800.000
G1 X88.076 Y96.465 E2.06148
G1 X87.168 Y96.869 E2.09221
G1 X86.197 Y97.076 E2.12295
G1 X85.203 Y97.076 E2.15369
G1 X84.232 Y96.869 E2.18443
G1 X83.324 Y96.465 E2.21516
G1 X82.520 Y95.881 E2.24590
G1 X81.856 Y95.143 E2.27664
G1 X81.359 Y94.283 E2.30738
G1 X81.052 Y93.338 E2.33812
G1 X80.950 Y92.364 E2.36840
G1 X81.052 Y91.363 E2.39956
G1 X81.359 Y90.417 E2.43032
G1 X81.856 Y89.557 E2.46106
G1 X82.520 Y88.819 E2.49179
G1 X83.324 Y88.235 E2.52253
G1 X84.232 Y87.831 E2.55327
G1 X85.203 Y87.624 E2.58401
G1 X86.197 Y87.624 E2.61475 F1800.000
G1 X87.168 Y87.831 E2.64548
G1 X88.076 Y88.235 E2.67622
G1 X88.880 Y88.819 E2.70696
G1 X89.544 Y89.557 E2.73770
G1 X90.041 Y90.417 E2.76844
G1 X90.348 Y91.362 E2.79917
G1 X90.452 Y92.350 E2.82991
G1 X90.348 Y93.338 E2.86065
G1 X90.041 Y94.283 E2.89138
G1 X89.582 Y95.078 E2.91980
G1 X89.732 Y95.607 F7800.000
G1 E0.91980 F2400.00000
G92 E0
G1 X115.372 Y106.912 F7800.000
G1 E2.00000 F2400.00000
G1 X115.989 Y105.989 E2.03433 F1800.000
G1 X116.912 Y105.372 E2.06866
G1 X117.974 Y105.161 E2.10218 F1800.000
G1 X119.084 Y105.369 E2.13712
G1 X120.011 Y105.989 E2.17162
G1 X120.628 Y106.912 E2.20595
G1 X120.844 Y108.000 E2.24029
G1 X120.628 Y109.088 E2.27463
G1 X120.011 Y110.011 E2.30896
G1 X119.088 Y110.628 E2.34329
G1 X118.000 Y110.844 E2.37763
G1 X116.912 Y110.628 E2.41197
G1 X115.989 Y110.011 E2.44630
G1 X115.372 Y109.088 E2.48063
G1 X115.156 Y108.000 E2.51497
G1 X115.358 Y106.985 E2.54699
G1 X115.961 Y107.155 F7800.000
G1 X116.440 Y106.440 E2.57363 F1800.000
G1 X117.155 Y105.961 E2.60027
G1 X117.977 Y105.798 E2.62620 F1800.000
G1 X118.843 Y105.960 E2.65345
G1 X119.560 Y106.440 E2.68015
G1 X120.039 Y107.155 E2.70679
G1 X120.207 Y108.000 E2.73344
G1 X120.039 Y108.845 E2.76008
G1 X119.560 Y109.560 E2.78672
G1 X118.845 Y110.039 E2.81336
G1 X118.000 Y110.207 E2.84001
G1 X117.155 Y110.039 E2.86665
G1 X116.440 Y109.560 E2.89329
G1 X115.961 Y108.845 E2.91993
G1 X115.793 Y108.000 E2.94658
G1 X115.946 Y107.229 E2.97090
G1 X115.683 Y106.740 F7800.000
G1 X90.481 Y108.000 F7800.000
G1 X90.216 Y109.332 E3.01293 F1800.000
G1 X89.461 Y110.461 E3.05495
G1 X88.332 Y111.216 E3.09698
G1 X87.000 Y111.481 E3.13901
G1 X85.668 Y111.216 E3.18104
G1 X84.538 Y110.461 E3.22306
G1 X83.784 Y109.332 E3.26509
G1 X83.519 Y108.000 E3.30711
G1 X83.784 Y106.668 E3.34914
G1 X84.538 Y105.539 E3.39117
G1 X85.668 Y104.784 E3.43319
G1 X86.970 Y104.525 E3.47429 F1800.000
G1 X88.325 Y104.779 E3.51692
G1 X89.461 Y105.539 E3.55923
G1 X90.216 Y106.668 E3.60125
G1 X90.466 Y107.926 E3.64096
G1 X89.844 Y108.000 F7800.000
G1 X89.628 Y109.088 E3.67530 F1800.000
G1 X89.011 Y110.011 E3.70963
G1 X88.088 Y110.628 E3.74396
G1 X87.000 Y110.844 E3.77830
G1 X85.912 Y110.628 E3.81263
G1 X84.989 Y110.011 E3.84697
G1 X84.372 Y109.088 E3.88130
G1 X84.156 Y108.000 E3.91564
G1 X84.372 Y106.912 E3.94997
G1 X84.989 Y105.989 E3.98430
G1 X85.912 Y105.372 E4.01864
G1 X86.974 Y105.161 E4.05215 F1800.000
G1 X88.084 Y105.369 E4.08709
G1 X89.011 Y105.989 E4.12160
G1 X89.628 Y106.912 E4.15593
G1 X89.829 Y107.926 E4.18794
G1 X89.207 Y108.000 F7800.000
G1 X89.039 Y108.845 E4.21459 F1800.000
G1 X88.560 Y109.560 E4.24123
G1 X87.845 Y110.039 E4.26787
G1 X87.000 Y110.207 E4.29452
G1 X86.155 Y110.039 E4.32116
G1 X85.440 Y109.560 E4.34780
G1 X84.961 Y108.845 E4.37444
G1 X84.793 Y108.000 E4.40109
G1 X84.961 Y107.155 E4.42773
G1 X85.440 Y106.440 E4.45437
G1 X86.155 Y105.961 E4.48102
G1 X86.977 Y105.798 E4.50695 F1800.000
G1 X87.843 Y105.960 E4.53419
G1 X88.560 Y106.440 E4.56090
G1 X89.039 Y107.155 E4.58754
G1 X89.192 Y107.926 E4.61186
G1 X89.623 Y108.278 F7800.000
G1 X89.750 Y105.250 F7800.000
G1 X115.732 Y105.250 E5.41576 F1800.000
G1 X114.784 Y106.668 E5.46853
G1 X114.519 Y108.000 E5.51056
G1 X114.784 Y109.332 E5.55259
G1 X115.539 Y110.461 E5.59461
G1 X116.668 Y111.216 E5.63663
G1 X118.000 Y111.481 E5.67866
G1 X119.332 Y111.216 E5.72069
G1 X120.461 Y110.461 E5.76272
G1 X121.216 Y109.332 E5.80474
G1 X121.481 Y108.000 E5.84677
G1 X121.263 Y106.901 E5.88143
G1 X121.508 Y106.770 E5.89003
G1 X122.050 Y107.313 E5.91377
G1 X122.050 Y117.487 E6.22858
G1 X114.487 Y125.050 E6.55952
G1 X102.550 Y125.050 E6.92887
G1 X102.550 Y127.050 E6.99075
G1 X97.750 Y127.050 E7.13928
G1 X97.750 Y125.050 E7.20117
G1 X85.732 Y125.050 E7.57300
G1 X77.950 Y118.520 E7.88735
G1 X77.950 Y76.013 E9.20258
G1 X81.013 Y72.950 E9.33660
G1 X87.687 Y72.950 E9.54313
G1 X88.230 Y73.492 E9.56686
G1 X88.101 Y73.737 E9.57542
G1 X86.970 Y73.525 E9.61100
G1 X85.668 Y73.784 E9.65210
G1 X84.538 Y74.539 E9.69413
G1 X83.784 Y75.668 E9.73615
G1 X83.519 Y77.000 E9.77818
G1 X83.784 Y78.332 E9.82021
G1 X84.538 Y79.461 E9.86223
G1 X85.668 Y80.216 E9.90426
G1 X87.000 Y80.481 E9.94628
G1 X88.332 Y80.216 E9.98831
G1 X89.750 Y79.268 E10.04108
G1 X89.750 Y87.906 E10.30835
G1 X88.704 Y87.146 E10.34836
G1 X87.557 Y86.636 E10.38722
G1 X86.328 Y86.374 E10.42609
G1 X85.072 Y86.374 E10.46496
G1 X83.843 Y86.636 E10.50382
G1 X82.696 Y87.146 E10.54269
G1 X81.679 Y87.885 E10.58155
G1 X80.839 Y88.818 E10.62042
G1 X80.211 Y89.906 E10.65929
G1 X79.822 Y91.103 E10.69823
G1 X79.693 Y92.366 E10.73752
G1 X79.823 Y93.599 E10.77588
G1 X80.211 Y94.794 E10.81474
G1 X80.839 Y95.882 E10.85361
G1 X81.679 Y96.815 E10.89248
G1 X82.696 Y97.554 E10.93134
G1 X83.843 Y98.064 E10.97021
G1 X85.072 Y98.326 E11.00907
G1 X86.328 Y98.326 E11.04794
G1 X87.557 Y98.064 E11.08681
G1 X88.704 Y97.554 E11.12568
G1 X89.750 Y96.794 E11.16568
G1 X89.750 Y105.175 E11.42500
G1 E9.42500 F2400.00000
G92 E0
G1 X87.000 Y79.844 F7800.000
G1 E2.00000 F2400.00000
G1 X85.912 Y79.628 E2.03433 F1800.000
G1 X84.989 Y79.011 E2.06867
G1 X84.372 Y78.088 E2.10300
G1 X84.156 Y77.000 E2.13734
G1 X84.372 Y75.912 E2.17168
G1 X84.989 Y74.989 E2.20601
G1 X85.912 Y74.372 E2.24034
G1 X86.974 Y74.161 E2.27386 F1800.000
G1 X88.084 Y74.369 E2.30880
G1 X89.011 Y74.989 E2.34330
G1 X89.628 Y75.912 E2.37763
G1 X89.844 Y77.000 E2.41197
G1 X89.628 Y78.088 E2.44631
G1 X89.011 Y79.011 E2.48064
G1 X88.088 Y79.628 E2.51497
G1 X87.074 Y79.829 E2.54699
G1 X87.000 Y79.207 F7800.000
G1 X86.155 Y79.039 E2.57363 F1800.000
G1 X85.440 Y78.560 E2.60027
G1 X84.961 Y77.845 E2.62691
G1 X84.793 Y77.000 E2.65356
G1 X84.961 Y76.155 E2.68020
G1 X85.440 Y75.440 E2.70684
G1 X86.155 Y74.961 E2.73349
G1 X86.977 Y74.798 E2.75942 F1800.000
G1 X87.843 Y74.960 E2.78666
G1 X88.560 Y75.440 E2.81337
G1 X89.039 Y76.155 E2.84001
G1 X89.207 Y77.000 E2.86665
G1 X89.039 Y77.845 E2.89330
G1 X88.560 Y78.560 E2.91994
G1 X87.845 Y79.039 E2.94658
G1 X87.074 Y79.192 E2.97090
G1 X86.722 Y79.623 F7800.000
G1 E0.97090 F2400.00000
G92 E0
G1 X90.375 Y104.625 F7800.000
G1 E2.00000 F2400.00000
G1 X120.246 Y104.625 E2.92425 F1800.000
G1 X122.675 Y107.054 E3.03053
G1 X122.675 Y117.746 E3.36137
G1 X114.746 Y125.675 E3.70832
G1 X103.175 Y125.675 E4.06635
G1 X103.175 Y127.675 E4.12823
G1 X97.125 Y127.675 E4.31543
G1 X97.125 Y125.675 E4.37731
G1 X85.505 Y125.675 E4.73685
G1 X77.325 Y118.811 E5.06725
G1 X77.325 Y75.754 E6.39950
G1 X80.754 Y72.325 E6.54955
G1 X87.946 Y72.325 E6.77209
G1 X90.375 Y74.754 E6.87837
G1 X90.375 Y89.545 E7.33605
G1 X89.300 Y88.352 E7.38575
G1 X88.390 Y87.691 E7.42055
G1 X87.363 Y87.233 E7.45536
G1 X86.262 Y86.999 E7.49016
G1 X85.138 Y86.999 E7.52496
G1 X84.037 Y87.233 E7.55976
G1 X83.010 Y87.691 E7.59457
G1 X82.100 Y88.352 E7.62937
G1 X81.347 Y89.188 E7.66417
G1 X80.785 Y90.162 E7.69897
G1 X80.437 Y91.233 E7.73382
G1 X80.321 Y92.365 E7.76905
G1 X80.437 Y93.469 E7.80337
G1 X80.785 Y94.538 E7.83817
G1 X81.347 Y95.512 E7.87297
G1 X82.100 Y96.348 E7.90778
G1 X83.010 Y97.009 E7.94258
G1 X84.037 Y97.467 E7.97738
G1 X85.138 Y97.701 E8.01218
G1 X86.262 Y97.701 E8.04698
G1 X87.363 Y97.467 E8.08179
G1 X88.390 Y97.009 E8.11659
G1 X89.300 Y96.348 E8.15139
G1 X90.375 Y95.155 E8.20110
G1 X90.375 Y104.550 E8.49180
G1 X91.000 Y104.000 F7800.000
G1 X120.505 Y104.000 E9.40473 F1800.000
G1 X123.300 Y106.795 E9.52703
G1 X123.300 Y118.005 E9.87388
G1 X115.005 Y126.300 E10.23685
G1 X103.800 Y126.300 E10.58355
G1 X103.800 Y128.300 E10.64543
G1 X96.500 Y128.300 E10.87130
G1 X96.500 Y126.300 E10.93319
G1 X85.277 Y126.300 E11.28043
G1 X76.700 Y119.103 E11.62688
G1 X76.700 Y75.495 E12.97616
G1 X80.495 Y71.700 E13.14222
G1 X88.205 Y71.700 E13.38078
G1 X91.000 Y74.495 E13.50308
G1 X91.000 Y103.925 E14.41368
G1 X91.000 Y104.500 F7800.000
G1 X89.372 Y104.390 F7800.000
G1 X83.282 Y98.301 E14.68044 F1800.000
G1 X84.486 Y98.619 E14.71900
G1 X89.372 Y103.505 E14.93304
G1 X89.372 Y102.620 E14.96045
G1 X85.455 Y98.704 E15.13201
G1 X86.324 Y98.688 E15.15893
G1 X89.372 Y101.736 E15.29243
G1 X89.372 Y100.851 E15.31984
G1 X87.054 Y98.533 E15.42138
G1 X87.751 Y98.346 E15.44375
G1 X89.372 Y99.966 E15.51473
G1 X89.372 Y99.081 E15.54214
G1 X88.363 Y98.073 E15.58631
G1 X88.952 Y97.777 E15.60672
G1 X89.372 Y98.197 E15.62511
G1 X88.495 Y104.398 F7800.000
G1 X78.328 Y94.231 E16.07051 F1800.000
G1 X78.328 Y95.116 F7800.000
G1 X87.406 Y104.194 E16.46820 F1800.000
G1 X86.570 Y104.242 E16.49417
G1 X78.328 Y96.001 E16.85520
G1 X78.328 Y96.886 E16.88261
G1 X85.832 Y104.389 E17.21132
G1 X85.236 Y104.678 E17.23182
G1 X78.328 Y97.770 E17.53445
G1 X78.328 Y98.655 E17.56186
G1 X84.706 Y105.033 E17.84126
G1 X84.218 Y105.429 E17.86074
G1 X78.328 Y99.540 E18.11875
G1 X78.328 Y100.425 E18.14616
G1 X83.863 Y105.960 E18.38864
G1 X83.509 Y106.490 E18.40840
G1 X78.328 Y101.309 E18.63535
G1 X78.328 Y102.194 E18.66276
G1 X83.319 Y107.185 E18.88138
G1 X83.172 Y107.923 E18.90469
G1 X78.328 Y103.079 E19.11689
G1 X78.328 Y103.964 E19.14429
G1 X83.287 Y108.923 E19.36154
G1 X84.021 Y110.541 F7800.000
G1 X78.328 Y104.848 E19.61092 F1800.000
G1 X78.328 Y105.733 E19.63832
G1 X97.267 Y124.672 E20.46799
G1 X98.128 Y124.648 E20.49468
G1 X100.152 Y126.672 E20.58332
G1 X101.036 Y126.672 E20.61072
G1 X86.077 Y111.713 E21.26606
G1 X87.077 Y111.828 E21.29725
G1 X101.921 Y126.672 E21.94752
G1 X102.172 Y126.037 E21.96865
G1 X87.815 Y111.681 E22.59757
G1 X88.510 Y111.491 E22.61988
G1 X102.172 Y125.153 E23.21838
G1 X102.575 Y124.672 F7800.000
G1 X89.040 Y111.137 E23.81132 F1800.000
G1 X89.571 Y110.782 E23.83108
G1 X103.460 Y124.672 E24.43956
G1 X104.345 Y124.672 E24.46696
G1 X89.967 Y110.294 E25.09683
G1 X90.322 Y109.764 E25.11659
G1 X105.230 Y124.672 E25.76969
G1 X106.114 Y124.672 E25.79709
G1 X90.611 Y109.168 E26.47627
G1 X90.758 Y108.430 E26.49958
G1 X106.999 Y124.672 E27.21108
G1 X107.884 Y124.672 E27.23849
G1 X90.818 Y107.605 E27.98613
G1 X90.598 Y106.501 E28.02101
G1 X108.769 Y124.672 E28.81704
G1 X109.653 Y124.672 E28.84444
G1 X90.610 Y105.628 E29.67870
G1 X91.495 Y105.628 E29.70610
G1 X110.538 Y124.672 E30.54036
G1 X111.423 Y124.672 E30.56777
G1 X92.380 Y105.628 E31.40202
G1 X93.264 Y105.628 E31.42943
G1 X112.308 Y124.672 E32.26368
G1 X113.192 Y124.672 E32.29109
G1 X94.149 Y105.628 E33.12534
G1 X95.034 Y105.628 E33.15275
G1 X114.077 Y124.672 E33.98701
G1 X114.671 Y124.381 E34.00749
G1 X95.919 Y105.628 E34.82900
G1 X96.803 Y105.628 E34.85640
G1 X115.113 Y123.938 E35.65853
G1 X115.556 Y123.496 E35.67791
G1 X97.688 Y105.628 E36.46066
G1 X98.573 Y105.628 E36.48807
G1 X115.998 Y123.054 E37.25144
G1 X116.440 Y122.611 E37.27082
G1 X99.458 Y105.628 E38.01481
G1 X100.342 Y105.628 E38.04221
G1 X116.883 Y122.169 E38.76682
G1 X117.325 Y121.726 E38.78620
G1 X101.227 Y105.628 E39.49143
G1 X102.112 Y105.628 E39.51884
G1 X117.767 Y121.284 E40.20469
G1 X118.210 Y120.842 E40.22407
G1 X102.997 Y105.628 E40.89054
G1 X103.881 Y105.628 E40.91795
G1 X118.652 Y120.399 E41.56504
G1 X119.095 Y119.957 E41.58442
G1 X104.766 Y105.628 E42.21213
G1 X105.651 Y105.628 E42.23954
G1 X119.537 Y119.515 E42.84787
G1 X119.979 Y119.072 E42.86725
G1 X106.536 Y105.628 E43.45620
G1 X107.420 Y105.628 E43.48361
G1 X120.422 Y118.630 E44.05318
G1 X120.864 Y118.187 E44.07256
G1 X108.305 Y105.628 E44.62275
G1 X109.190 Y105.628 E44.65016
G1 X121.306 Y117.745 E45.18097
G1 X121.672 Y117.225 E45.20064
G1 X110.075 Y105.628 E45.70869
G1 X110.959 Y105.628 E45.73610
G1 X114.296 Y108.965 E45.88227
G1 X114.166 Y107.951 E45.91393
G1 X111.844 Y105.628 E46.01568
G1 X112.729 Y105.628 E46.04308
G1 X114.313 Y107.213 E46.11249
G1 X114.495 Y106.510 E46.13498
G1 X113.614 Y105.628 E46.17361
G1 X114.498 Y105.628 E46.20102
G1 X114.850 Y105.980 E46.21642
G1 X117.035 Y111.704 F7800.000
G1 X121.672 Y116.341 E46.41954 F1800.000
G1 X121.672 Y115.456 E46.44695
G1 X118.049 Y111.834 E46.60564
G1 X118.787 Y111.687 E46.62895
G1 X121.672 Y114.571 E46.75531
G1 X121.672 Y113.686 E46.78271
G1 X119.490 Y111.505 E46.87830
G1 X120.020 Y111.150 E46.89806
G1 X121.672 Y112.802 E46.97041
G1 X121.672 Y111.917 E46.99782
G1 X120.550 Y110.796 E47.04694
G1 X121.357 Y110.717 E47.07203
G1 X121.672 Y111.032 E47.08584
G1 X98.152 Y124.672 F7800.000
G1 X84.459 Y110.979 E47.68568 F1800.000
G1 X78.328 Y111.042 F7800.000
G1 X91.958 Y124.672 E48.28278 F1800.000
G1 X91.074 Y124.672 E48.31019
G1 X78.328 Y111.926 E48.86854
G1 X78.328 Y112.811 E48.89594
G1 X90.189 Y124.672 E49.41553
G1 X89.304 Y124.672 E49.44294
G1 X78.328 Y113.696 E49.92376
G1 X78.328 Y114.581 E49.95117
G1 X88.419 Y124.672 E50.39324
G1 X87.535 Y124.672 E50.42065
G1 X78.328 Y115.465 E50.82395
G1 X78.328 Y116.350 E50.85136
G1 X86.650 Y124.672 E51.21591
G1 X84.274 Y123.181 F7800.000
G1 X78.328 Y117.235 E51.47640 F1800.000
G1 X78.328 Y118.120 E51.50380
G1 X78.776 Y118.567 E51.52339
G1 X78.328 Y110.157 F7800.000
G1 X92.843 Y124.672 E52.15926 F1800.000
G1 X93.728 Y124.672 E52.18666
G1 X78.328 Y109.272 E52.86129
G1 X78.328 Y108.387 E52.88870
G1 X94.613 Y124.672 E53.60208
G1 X95.497 Y124.672 E53.62949
G1 X78.328 Y107.503 E54.38163
G1 X78.328 Y106.618 E54.40904
G1 X96.382 Y124.672 E55.19994
G1 X98.128 Y125.533 F7800.000
G1 X99.267 Y126.672 E55.24981 F1800.000
G1 E53.24981 F2400.00000
G92 E0
G1 X79.757 Y94.775 F7800.000
G1 E2.00000 F2400.00000
G1 X78.328 Y93.347 E2.06258 F1800.000
G1 X78.328 Y92.462 E2.08999
G1 X79.423 Y93.556 E2.13794
G1 X79.319 Y92.568 E2.16873
G1 X78.328 Y91.577 E2.21213
G1 X78.328 Y90.692 E2.23954
G1 X79.388 Y91.752 E2.28596
G1 X79.500 Y90.980 E2.31014
G1 X78.328 Y89.808 E2.36148
G1 X78.328 Y88.923 E2.38889
G1 X79.717 Y90.312 E2.44973
G1 X79.964 Y89.674 E2.47092
G1 X78.328 Y88.038 E2.54258
G1 X78.328 Y87.153 E2.56998
G1 X80.288 Y89.113 E2.65582
G1 X80.628 Y88.568 E2.67571
G1 X78.328 Y86.269 E2.77645
G1 X78.328 Y85.384 E2.80386
G1 X81.047 Y88.103 E2.92297
G1 X81.466 Y87.637 E2.94238
G1 X78.328 Y84.499 E3.07985
G1 X78.328 Y83.614 E3.10726
G1 X81.979 Y87.265 E3.26717
G1 X82.491 Y86.892 E3.28679
G1 X78.328 Y82.730 E3.46914
G1 X78.328 Y81.845 E3.49655
G1 X83.087 Y86.604 E3.70504
G1 X83.700 Y86.332 E3.72580
