; generated by Slic3r 1.2.9 on 2015-12-10 at 15:34:04

; external perimeters extrusion width = 0.40mm
; perimeters extrusion width = 0.48mm
; infill extrusion width = 0.48mm
; solid infill extrusion width = 0.48mm
; top infill extrusion width = 0.48mm

M190 S80 ; set bed temperature
M109 S230
G28 ; home all axes
G92 E0  ;reset extruder
G21 ; set units to millimeters
G90 ; use absolute coordinates
M83 ; use relative distances for extrusion
G1 E-1.00000 F1800.00000
G1 Z0.350 F7800.000
G1 X48.668 Y81.774 F7800.000
G1 E1.00000 F1800.00000
G1 X50.820 Y80.981 E0.21588 F1440.000
G1 X52.000 Y80.875 E0.11150
G1 X148.000 Y80.875 E9.03640
G1 X150.259 Y81.272 E0.21588
G1 X152.247 Y82.415 E0.21588 F1440.000
G1 X153.726 Y84.168 E0.21588
G1 X154.519 Y86.320 E0.21588
G1 X154.625 Y87.500 E0.11150
G1 X154.625 Y112.500 E2.35323
G1 X154.228 Y114.759 E0.21588
G1 X153.085 Y116.747 E0.21588
G1 X151.332 Y118.226 E0.21588
G1 X149.180 Y119.019 E0.21588
G1 X148.000 Y119.125 E0.11150
G1 X52.000 Y119.125 E9.03640
G1 X49.741 Y118.728 E0.21588
G1 X47.753 Y117.585 E0.21588
G1 X46.274 Y115.832 E0.21588
G1 X45.481 Y113.680 E0.21588
G1 X45.375 Y112.500 E0.11150
G1 X45.375 Y87.500 E2.35323
G1 X45.772 Y85.241 E0.21588
G1 X46.915 Y83.253 E0.21588
G1 X48.622 Y81.813 E0.21023
G1 E-1.00000 F1800.00000
G1 X141.600 Y110.900 F7800.000
G1 E1.00000 F1800.00000
G1 X141.600 Y89.100 E2.05206 F840.000
G1 X146.400 Y89.100 E0.45186
G1 X146.400 Y110.900 E2.05206
G1 X141.660 Y110.900 E0.44621
G1 X140.975 Y111.525 F7800.000
G1 X140.975 Y88.475 E2.16970 F840.000
G1 X147.025 Y88.475 E0.56950
G1 X147.025 Y111.525 E2.16970
G1 X141.035 Y111.525 E0.56385
G1 X140.350 Y112.150 F7800.000
G1 X140.350 Y87.850 E2.28734 F588.000
G1 X147.650 Y87.850 E0.68714
G1 X147.650 Y112.150 E2.28734
G1 X140.410 Y112.150 E0.68150
G1 X140.550 Y111.804 F7800.000
G1 X142.283 Y110.522 F7800.000
G1 X141.978 Y110.217 E0.04166 F1080.000
G1 X141.978 Y109.310 E0.08753
G1 X143.190 Y110.522 E0.16545
G1 X144.097 Y110.522 E0.08753
G1 X141.978 Y108.403 E0.28924
G1 X141.978 Y107.497 E0.08753
G1 X145.003 Y110.522 E0.41303
G1 X145.910 Y110.522 E0.08753
G1 X141.978 Y106.590 E0.53682
G1 X141.978 Y105.684 E0.08753
G1 X146.022 Y109.727 E0.55213
G1 X146.022 Y108.821 E0.08753
G1 X141.978 Y104.777 E0.55213
G1 X141.978 Y103.871 E0.08753
G1 X146.022 Y107.914 E0.55213
G1 X146.022 Y107.008 E0.08753
G1 X141.978 Y102.964 E0.55213
G1 X141.978 Y102.058 E0.08753
G1 X146.022 Y106.101 E0.55213
G1 X146.022 Y105.195 E0.08753
G1 X141.978 Y101.151 E0.55213
G1 X141.978 Y100.245 E0.08753
G1 X146.022 Y104.288 E0.55213
G1 X146.022 Y103.381 E0.08753
G1 X141.978 Y99.338 E0.55213
G1 X141.978 Y98.432 E0.08753
G1 X146.022 Y102.475 E0.55213
G1 X146.022 Y101.568 E0.08753
G1 X141.978 Y97.525 E0.55213
G1 X141.978 Y96.619 E0.08753
G1 X146.022 Y100.662 E0.55213
G1 X146.022 Y99.755 E0.08753
G1 X141.978 Y95.712 E0.55213
G1 X141.978 Y94.805 E0.08753
G1 X146.022 Y98.849 E0.55213
G1 X146.022 Y97.942 E0.08753
G1 X141.978 Y93.899 E0.55213
G1 X141.978 Y92.992 E0.08753
G1 X146.022 Y97.036 E0.55213
G1 X146.022 Y96.129 E0.08753
G1 X141.978 Y92.086 E0.55213
G1 X141.978 Y91.179 E0.08753
G1 X146.022 Y95.223 E0.55213
G1 X146.022 Y94.316 E0.08753
G1 X141.978 Y90.273 E0.55213
G1 X142.090 Y89.478 E0.07747
G1 X146.022 Y93.410 E0.53683
G1 X146.022 Y92.503 E0.08753
G1 X142.997 Y89.478 E0.41304
G1 X143.903 Y89.478 E0.08753
G1 X146.022 Y91.597 E0.28925
G1 X146.022 Y90.690 E0.08753
G1 X144.810 Y89.478 E0.16546
G1 X145.717 Y89.478 E0.08753
G1 X146.022 Y89.783 E0.04167
G1 E-1.00000 F1800.00000
G1 X58.400 Y110.900 F7800.000
G1 E1.00000 F1800.00000
G1 X53.600 Y110.900 E0.45186 F840.000
G1 X53.600 Y89.100 E2.05206
G1 X58.400 Y89.100 E0.45186
G1 X58.400 Y110.840 E2.04641
G1 X59.025 Y111.525 F7800.000
G1 X52.975 Y111.525 E0.56950 F840.000
G1 X52.975 Y88.475 E2.16970
G1 X59.025 Y88.475 E0.56950
G1 X59.025 Y111.465 E2.16405
G1 X59.650 Y112.150 F7800.000
G1 X52.350 Y112.150 E0.68714 F588.000
G1 X52.350 Y87.850 E2.28734
G1 X59.650 Y87.850 E0.68714
G1 X59.650 Y112.090 E2.28169
G1 X59.304 Y111.950 F7800.000
G1 X54.283 Y110.522 F7800.000
G1 X53.978 Y110.217 E0.04166 F1080.000
G1 X53.978 Y109.310 E0.08753
G1 X55.190 Y110.522 E0.16545
G1 X56.097 Y110.522 E0.08753
G1 X53.978 Y108.403 E0.28924
G1 X53.978 Y107.497 E0.08753
G1 X57.003 Y110.522 E0.41303
G1 X57.910 Y110.522 E0.08753
G1 X53.978 Y106.590 E0.53683
G1 X53.978 Y105.684 E0.08753
G1 X58.022 Y109.727 E0.55213
G1 X58.022 Y108.821 E0.08753
G1 X53.978 Y104.777 E0.55213
G1 X53.978 Y103.871 E0.08753
G1 X58.022 Y107.914 E0.55213
G1 X58.022 Y107.008 E0.08753
G1 X53.978 Y102.964 E0.55213
G1 X53.978 Y102.058 E0.08753
G1 X58.022 Y106.101 E0.55213
G1 X58.022 Y105.195 E0.08753
G1 X53.978 Y101.151 E0.55213
G1 X53.978 Y100.245 E0.08753
G1 X58.022 Y104.288 E0.55213
G1 X58.022 Y103.381 E0.08753
G1 X53.978 Y99.338 E0.55213
G1 X53.978 Y98.432 E0.08753
G1 X58.022 Y102.475 E0.55213
G1 X58.022 Y101.568 E0.08753
G1 X53.978 Y97.525 E0.55213
G1 X53.978 Y96.619 E0.08753
G1 X58.022 Y100.662 E0.55213
G1 X58.022 Y99.755 E0.08753
G1 X53.978 Y95.712 E0.55213
G1 X53.978 Y94.805 E0.08753
G1 X58.022 Y98.849 E0.55213
G1 X58.022 Y97.942 E0.08753
G1 X53.978 Y93.899 E0.55213
G1 X53.978 Y92.992 E0.08753
G1 X58.022 Y97.036 E0.55213
G1 X58.022 Y96.129 E0.08753
G1 X53.978 Y92.086 E0.55213
G1 X53.978 Y91.179 E0.08753
G1 X58.022 Y95.223 E0.55213
G1 X58.022 Y94.316 E0.08753
G1 X53.978 Y90.273 E0.55213
G1 X54.090 Y89.478 E0.07747
G1 X58.022 Y93.410 E0.53683
G1 X58.022 Y92.503 E0.08753
G1 X54.997 Y89.478 E0.41304
G1 X55.903 Y89.478 E0.08753
G1 X58.022 Y91.597 E0.28925
G1 X58.022 Y90.690 E0.08753
G1 X56.810 Y89.478 E0.16546
G1 X57.717 Y89.478 E0.08753
G1 X58.022 Y89.783 E0.04167
M104 S231 ; set temperature
M140 S85 ; wait for bed temperature to be reached
G1 E-1.00000 F1800.00000
G1 Z0.650 F7800.000
G1 X140.996 Y111.504 F7800.000
G1 E1.00000 F1800.00000
G1 X140.996 Y88.496 E1.24433 F2100.000
G1 X147.004 Y88.496 E0.32492
G1 X147.004 Y111.504 E1.24433
G1 X141.056 Y111.504 E0.32167
G1 X140.577 Y111.923 F7800.000
G1 X140.577 Y88.077 E1.28964 F2100.000
G1 X147.423 Y88.077 E0.37023
G1 X147.423 Y111.923 E1.28964
G1 X140.637 Y111.923 E0.36698
G1 X140.200 Y112.300 F7800.000
G1 X140.200 Y87.700 E1.06600 F1470.000
G1 X147.800 Y87.700 E0.32933
G1 X147.800 Y112.300 E1.06600
G1 X140.260 Y112.300 E0.32673
G1 X140.400 Y111.954 F7800.000
G1 X146.539 Y111.257 F7800.000
G1 X146.757 Y111.039 E0.01686 F2700.000
G1 X146.757 Y110.439 E0.03285
G1 X145.939 Y111.257 E0.06331
G1 X145.339 Y111.257 E0.03285
G1 X146.757 Y109.839 E0.10977
G1 X146.757 Y109.240 E0.03285
G1 X144.740 Y111.257 E0.15622
G1 X144.140 Y111.257 E0.03285
G1 X146.757 Y108.640 E0.20267
G1 X146.757 Y108.040 E0.03285
G1 X143.540 Y111.257 E0.24912
G1 X142.940 Y111.257 E0.03285
G1 X146.757 Y107.440 E0.29557
G1 X146.757 Y106.840 E0.03285
G1 X142.340 Y111.257 E0.34203
G1 X141.740 Y111.257 E0.03285
G1 X146.757 Y106.240 E0.38848
G1 X146.757 Y105.641 E0.03285
G1 X141.243 Y111.154 E0.42698
G1 X141.243 Y110.554 E0.03285
G1 X146.757 Y105.041 E0.42698
G1 X146.757 Y104.441 E0.03285
G1 X141.243 Y109.954 E0.42698
G1 X141.243 Y109.355 E0.03285
G1 X146.757 Y103.841 E0.42698
G1 X146.757 Y103.241 E0.03285
G1 X141.243 Y108.755 E0.42698
G1 X141.243 Y108.155 E0.03285
G1 X146.757 Y102.642 E0.42698
G1 X146.757 Y102.042 E0.03285
G1 X141.243 Y107.555 E0.42698
G1 X141.243 Y106.955 E0.03285
G1 X146.757 Y101.442 E0.42698
G1 X146.757 Y100.842 E0.03285
G1 X141.243 Y106.356 E0.42698
G1 X141.243 Y105.756 E0.03285
G1 X146.757 Y100.242 E0.42698
G1 X146.757 Y99.643 E0.03285
G1 X141.243 Y105.156 E0.42698
G1 X141.243 Y104.556 E0.03285
G1 X146.757 Y99.043 E0.42698
G1 X146.757 Y98.443 E0.03285
G1 X141.243 Y103.956 E0.42698
G1 X141.243 Y103.357 E0.03285
G1 X146.757 Y97.843 E0.42698
G1 X146.757 Y97.243 E0.03285
G1 X141.243 Y102.757 E0.42698
G1 X141.243 Y102.157 E0.03285
G1 X146.757 Y96.643 E0.42698
G1 X146.757 Y96.044 E0.03285
G1 X141.243 Y101.557 E0.42698
G1 X141.243 Y100.957 E0.03285
G1 X146.757 Y95.444 E0.42698
G1 X146.757 Y94.844 E0.03285
G1 X141.243 Y100.357 E0.42698
G1 X141.243 Y99.758 E0.03285
G1 X146.757 Y94.244 E0.42698
G1 X146.757 Y93.644 E0.03285
G1 X141.243 Y99.158 E0.42698
G1 X141.243 Y98.558 E0.03285
G1 X146.757 Y93.045 E0.42698
G1 X146.757 Y92.445 E0.03285
G1 X141.243 Y97.958 E0.42698
G1 X141.243 Y97.358 E0.03285
G1 X146.757 Y91.845 E0.42698
G1 X146.757 Y91.245 E0.03285
G1 X141.243 Y96.759 E0.42698
G1 X141.243 Y96.159 E0.03285
G1 X146.757 Y90.645 E0.42698
G1 X146.757 Y90.046 E0.03285
G1 X141.243 Y95.559 E0.42698
G1 X141.243 Y94.959 E0.03285
G1 X146.757 Y89.446 E0.42698
G1 X146.757 Y88.846 E0.03285
G1 X141.243 Y94.359 E0.42698
G1 X141.243 Y93.760 E0.03285
G1 X146.260 Y88.743 E0.38848
G1 X145.660 Y88.743 E0.03285
G1 X141.243 Y93.160 E0.34203
G1 X141.243 Y92.560 E0.03285
G1 X145.060 Y88.743 E0.29557
G1 X144.460 Y88.743 E0.03285
G1 X141.243 Y91.960 E0.24912
G1 X141.243 Y91.360 E0.03285
G1 X143.860 Y88.743 E0.20267
G1 X143.260 Y88.743 E0.03285
G1 X141.243 Y90.760 E0.15622
G1 X141.243 Y90.161 E0.03285
G1 X142.661 Y88.743 E0.10977
G1 X142.061 Y88.743 E0.03285
G1 X141.243 Y89.561 E0.06331
G1 X141.243 Y88.961 E0.03285
G1 X141.461 Y88.743 E0.01686
G1 E-1.00000 F1800.00000
G1 X59.004 Y111.504 F7800.000
G1 E1.00000 F1800.00000
G1 X52.996 Y111.504 E0.32492 F2100.000
G1 X52.996 Y88.496 E1.24433
G1 X59.004 Y88.496 E0.32492
G1 X59.004 Y111.444 E1.24109
G1 X59.423 Y111.923 F7800.000
G1 X52.577 Y111.923 E0.37023 F2100.000
G1 X52.577 Y88.077 E1.28964
G1 X59.423 Y88.077 E0.37023
G1 X59.423 Y111.863 E1.28640
G1 X59.800 Y112.300 F7800.000
G1 X52.200 Y112.300 E0.32933 F1470.000
G1 X52.200 Y87.700 E1.06600
G1 X59.800 Y87.700 E0.32933
G1 X59.800 Y112.240 E1.06340
G1 X59.454 Y112.100 F7800.000
G1 X58.539 Y111.257 F7800.000
G1 X58.757 Y111.039 E0.01686 F2700.000
G1 X58.757 Y110.439 E0.03285
G1 X57.939 Y111.257 E0.06331
G1 X57.339 Y111.257 E0.03285
G1 X58.757 Y109.839 E0.10977
G1 X58.757 Y109.240 E0.03285
G1 X56.740 Y111.257 E0.15622
G1 X56.140 Y111.257 E0.03285
G1 X58.757 Y108.640 E0.20267
G1 X58.757 Y108.040 E0.03285
G1 X55.540 Y111.257 E0.24912
G1 X54.940 Y111.257 E0.03285
G1 X58.757 Y107.440 E0.29557
G1 X58.757 Y106.840 E0.03285
G1 X54.340 Y111.257 E0.34203
G1 X53.740 Y111.257 E0.03285
G1 X58.757 Y106.240 E0.38848
G1 X58.757 Y105.641 E0.03285
G1 X53.243 Y111.154 E0.42698
G1 X53.243 Y110.554 E0.03285
G1 X58.757 Y105.041 E0.42698
G1 X58.757 Y104.441 E0.03285
G1 X53.243 Y109.954 E0.42698
G1 X53.243 Y109.355 E0.03285
G1 X58.757 Y103.841 E0.42698
G1 X58.757 Y103.241 E0.03285
G1 X53.243 Y108.755 E0.42698
G1 X53.243 Y108.155 E0.03285
G1 X58.757 Y102.642 E0.42698
G1 X58.757 Y102.042 E0.03285
G1 X53.243 Y107.555 E0.42698
G1 X53.243 Y106.955 E0.03285
G1 X58.757 Y101.442 E0.42698
G1 X58.757 Y100.842 E0.03285
G1 X53.243 Y106.356 E0.42698
G1 X53.243 Y105.756 E0.03285
G1 X58.757 Y100.242 E0.42698
G1 X58.757 Y99.643 E0.03285
G1 X53.243 Y105.156 E0.42698
G1 X53.243 Y104.556 E0.03285
G1 X58.757 Y99.043 E0.42698
G1 X58.757 Y98.443 E0.03285
G1 X53.243 Y103.956 E0.42698
G1 X53.243 Y103.357 E0.03285
G1 X58.757 Y97.843 E0.42698
G1 X58.757 Y97.243 E0.03285
G1 X53.243 Y102.757 E0.42698
G1 X53.243 Y102.157 E0.03285
G1 X58.757 Y96.643 E0.42698
G1 X58.757 Y96.044 E0.03285
G1 X53.243 Y101.557 E0.42698
G1 X53.243 Y100.957 E0.03285
G1 X58.757 Y95.444 E0.42698
G1 X58.757 Y94.844 E0.03285
G1 X53.243 Y100.357 E0.42698
G1 X53.243 Y99.758 E0.03285
G1 X58.757 Y94.244 E0.42698
G1 X58.757 Y93.644 E0.03285
G1 X53.243 Y99.158 E0.42698
G1 X53.243 Y98.558 E0.03285
G1 X58.757 Y93.045 E0.42698
G1 X58.757 Y92.445 E0.03285
G1 X53.243 Y97.958 E0.42698
G1 X53.243 Y97.358 E0.03285
G1 X58.757 Y91.845 E0.42698
G1 X58.757 Y91.245 E0.03285
G1 X53.243 Y96.759 E0.42698
G1 X53.243 Y96.159 E0.03285
G1 X58.757 Y90.645 E0.42698
G1 X58.757 Y90.046 E0.03285
G1 X53.243 Y95.559 E0.42698
G1 X53.243 Y94.959 E0.03285
G1 X58.757 Y89.446 E0.42698
G1 X58.757 Y88.846 E0.03285
G1 X53.243 Y94.359 E0.42698
G1 X53.243 Y93.760 E0.03285
G1 X58.260 Y88.743 E0.38848
G1 X57.660 Y88.743 E0.03285
G1 X53.243 Y93.160 E0.34203
G1 X53.243 Y92.560 E0.03285
G1 X57.060 Y88.743 E0.29557
G1 X56.460 Y88.743 E0.03285
G1 X53.243 Y91.960 E0.24912
G1 X53.243 Y91.360 E0.03285
G1 X55.860 Y88.743 E0.20267
G1 X55.260 Y88.743 E0.03285
G1 X53.243 Y90.760 E0.15622
G1 X53.243 Y90.161 E0.03285
G1 X54.661 Y88.743 E0.10976
G1 X54.061 Y88.743 E0.03285
G1 X53.243 Y89.561 E0.06331
G1 X53.243 Y88.961 E0.03285
G1 X53.461 Y88.743 E0.01686
G1 E-1.00000 F1800.00000
G1 Z0.950 F7800.000
G1 X140.996 Y111.504 F7800.000
G1 E1.00000 F1800.00000
G1 X140.996 Y88.496 E1.24433 F2100.000
G1 X147.004 Y88.496 E0.32492
G1 X147.004 Y111.504 E1.24433
G1 X141.056 Y111.504 E0.32167
G1 X140.577 Y111.923 F7800.000
G1 X140.577 Y88.077 E1.28964 F2100.000
G1 X147.423 Y88.077 E0.37023
G1 X147.423 Y111.923 E1.28964
G1 X140.637 Y111.923 E0.36698
G1 X140.200 Y112.300 F7800.000
G1 X140.200 Y87.700 E1.06600 F1470.000
G1 X147.800 Y87.700 E0.32933
G1 X147.800 Y112.300 E1.06600
G1 X140.260 Y112.300 E0.32673
G1 X140.400 Y111.954 F7800.000
G1 X141.243 Y111.039 F7800.000
G1 X141.461 Y111.257 E0.01686 F2700.000
G1 X142.061 Y111.257 E0.03285
G1 X141.243 Y110.439 E0.06331
G1 X141.243 Y109.839 E0.03285
G1 X142.661 Y111.257 E0.10977
G1 X143.260 Y111.257 E0.03285
G1 X141.243 Y109.240 E0.15622
G1 X141.243 Y108.640 E0.03285
G1 X143.860 Y111.257 E0.20267
G1 X144.460 Y111.257 E0.03285
G1 X141.243 Y108.040 E0.24912
G1 X141.243 Y107.440 E0.03285
G1 X145.060 Y111.257 E0.29557
G1 X145.660 Y111.257 E0.03285
G1 X141.243 Y106.840 E0.34203
G1 X141.243 Y106.240 E0.03285
G1 X146.260 Y111.257 E0.38848
G1 X146.757 Y111.154 E0.02780
G1 X141.243 Y105.641 E0.42698
G1 X141.243 Y105.041 E0.03285
G1 X146.757 Y110.554 E0.42698
G1 X146.757 Y109.954 E0.03285
G1 X141.243 Y104.441 E0.42698
G1 X141.243 Y103.841 E0.03285
G1 X146.757 Y109.355 E0.42698
G1 X146.757 Y108.755 E0.03285
G1 X141.243 Y103.241 E0.42698
G1 X141.243 Y102.642 E0.03285
G1 X146.757 Y108.155 E0.42698
G1 X146.757 Y107.555 E0.03285
G1 X141.243 Y102.042 E0.42698
G1 X141.243 Y101.442 E0.03285
G1 X146.757 Y106.955 E0.42698
G1 X146.757 Y106.356 E0.03285
G1 X141.243 Y100.842 E0.42698
G1 X141.243 Y100.242 E0.03285
G1 X146.757 Y105.756 E0.42698
G1 X146.757 Y105.156 E0.03285
G1 X141.243 Y99.643 E0.42698
G1 X141.243 Y99.043 E0.03285
G1 X146.757 Y104.556 E0.42698
G1 X146.757 Y103.956 E0.03285
G1 X141.243 Y98.443 E0.42698
G1 X141.243 Y97.843 E0.03285
G1 X146.757 Y103.357 E0.42698
G1 X146.757 Y102.757 E0.03285
G1 X141.243 Y97.243 E0.42698
G1 X141.243 Y96.643 E0.03285
G1 X146.757 Y102.157 E0.42698
G1 X146.757 Y101.557 E0.03285
G1 X141.243 Y96.044 E0.42698
G1 X141.243 Y95.444 E0.03285
G1 X146.757 Y100.957 E0.42698
G1 X146.757 Y100.357 E0.03285
G1 X141.243 Y94.844 E0.42698
G1 X141.243 Y94.244 E0.03285
G1 X146.757 Y99.758 E0.42698
G1 X146.757 Y99.158 E0.03285
G1 X141.243 Y93.644 E0.42698
G1 X141.243 Y93.045 E0.03285
G1 X146.757 Y98.558 E0.42698
G1 X146.757 Y97.958 E0.03285
G1 X141.243 Y92.445 E0.42698
G1 X141.243 Y91.845 E0.03285
G1 X146.757 Y97.358 E0.42698
G1 X146.757 Y96.759 E0.03285
G1 X141.243 Y91.245 E0.42698
G1 X141.243 Y90.645 E0.03285
G1 X146.757 Y96.159 E0.42698
G1 X146.757 Y95.559 E0.03285
G1 X141.243 Y90.046 E0.42698
G1 X141.243 Y89.446 E0.03285
G1 X146.757 Y94.959 E0.42698
G1 X146.757 Y94.359 E0.03285
G1 X141.243 Y88.846 E0.42698
G1 X141.740 Y88.743 E0.02780
G1 X146.757 Y93.760 E0.38848
G1 X146.757 Y93.160 E0.03285
G1 X142.340 Y88.743 E0.34203
G1 X142.940 Y88.743 E0.03285
G1 X146.757 Y92.560 E0.29557
G1 X146.757 Y91.960 E0.03285
G1 X143.540 Y88.743 E0.24912
G1 X144.140 Y88.743 E0.03285
G1 X146.757 Y91.360 E0.20267
G1 X146.757 Y90.760 E0.03285
G1 X144.740 Y88.743 E0.15622
G1 X145.339 Y88.743 E0.03285
G1 X146.757 Y90.161 E0.10977
G1 X146.757 Y89.561 E0.03285
G1 X145.939 Y88.743 E0.06331
G1 X146.539 Y88.743 E0.03285
G1 X146.757 Y88.961 E0.01686
G1 E-1.00000 F1800.00000
G1 X59.004 Y111.504 F7800.000
G1 E1.00000 F1800.00000
G1 X52.996 Y111.504 E0.32492 F2100.000
G1 X52.996 Y88.496 E1.24433
G1 X59.004 Y88.496 E0.32492
G1 X59.004 Y111.444 E1.24109
G1 X59.423 Y111.923 F7800.000
G1 X52.577 Y111.923 E0.37023 F2100.000
G1 X52.577 Y88.077 E1.28964
G1 X59.423 Y88.077 E0.37023
